X:11
M:2/4
L:1/8
K:G
|: d | g2 f/g/a/f/ | gdBd | g2 f/g/a/f/ | g2b2 | af d(e/f/) | gd B(c/d/) | BGDF | G2 [G,G] :|

